src/pos-icons/download-off-outline.svg

<svg height="24" viewBox="0 0 24 24" width="24" xmlns="http://www.w3.org/2000/svg"><path d="m22.11 21.46-19.72-19.73-1.28 1.27 6 6h-2.11l7 7 1.06-1.05 3.05 3.05h-11.11v2h13.11l2.73 2.73zm-11.11-16.46h2v4.8l2.6 2.6 3.4-3.4h-4v-6h-6v2.8l2 2z"/></svg>

<?xml version="1.0" encoding="UTF-8"?><!DOCTYPE svg PUBLIC "-//W3C//DTD SVG 1.1//EN" "http://www.w3.org/Graphics/SVG/1.1/DTD/svg11.dtd"><svg xmlns="http://www.w3.org/2000/svg" xmlns:xlink="http://www.w3.org/1999/xlink" version="1.1" id="mdi-download-off-outline" width="24" height="24" viewBox="0 0 24 24"><path d="M22.11 21.46L2.39 1.73L1.11 3L7.11 9H5L12 16L13.06 14.95L16.11 18H5V20H18.11L20.84 22.73L22.11 21.46M11 5H13V9.8L15.6 12.4L19 9H15V3H9V5.8L11 7.8V5Z" /></svg>
